X:1
T:Ariettes Oubliées
T:Il Pleure dans mon Coeur
T:2. Il Pleure dans mon Coeur
T:Claude Debussy
T:Paul Verlaine
T:Ariettes Oubliées
T:OpenScore (CC0)
T:OpenScore (CC0)
T:OpenScore (CC0)
T:OpenScore (CC0)
T:OpenScore (CC0)
T:OpenScore (CC0)
T:OpenScore (CC0)
T:OpenScore (CC0)
T:OpenScore (CC0)
T:OpenScore (CC0)
T:OpenScore (CC0)
C:Claude Debussy
Z:Paul Verlaine
Z:OpenScore (CC0)
%%score 1 { ( 2 4 ) | ( 3 5 6 ) }
L:1/8
Q:1/4=112
M:3/4
K:B
V:1 treble nm="Voice"
V:2 treble nm="PIANO"
V:4 treble 
V:3 bass 
V:5 bass 
V:6 bass 
V:1
"^Allegro non tanto" z6 | z6 | z6 | z2 z2!p!"^triste et monotone"!<(! (G2!<)! |!>(! B6!>)! | %5
w: |||Il|pleu-|
 G2) (G2 G2 | B4) (G G | B2 G2 D2 | =D6-) | =D2 z2 z2 | z2 (C2!<(! E2 | =F2 ^F2!<)! c2 | c6) | %13
w: re dans mon|coeur Comme il|pleut sur la|vil  \--|\-  le.|Quelle est|cet- te lan-|\- gueur|
!>(! (g4!>)! f2) | (f2 e2 c2- | c2 B2 G2 | E6 | D2) z2 z2 | z6 | z6 | z6 | z6 |!p! (d2 ^e2 d2 | %23
w: Qui pé-|nè  - * *|*  tre mon|coeur|_|||||O bruit doux|
 c2 Bc) d2- |!<(! (d2!<)! g2!>(! f2 | ^e2 d2 B2!>)! | B6-) | B2 z2 z2 | z6 | z6 | %30
w: de la * plui-|\- e Par terre|et sur les|toits!|_|||
 z2!p!!<(! (c2 A2 | G2 F2!<)! C2 | E4-) E2 |!<(! (G4 D2!<)! | E6) |!<(! (G4!<)! d2 | e4- e2) | %37
w: Pour un|coeur qui s'en-|nui  \-- \-  e|O le|bruit|de la|pluie! _|
 z2 z2!<(! (c2 | (g4)!<)! f2- |!>(! f2 d2 B2!>)! | B6) | z2!<(! (=G2 =d2!<)! | =d6) | %43
w: Il|pleu    \-- re|_ sans rai-|son|Dans ce|coeur|
 (=c4!>(! =G2!>)! | !courtesy!=G6- | !courtesy!=G2 ^F4) || %46
w: qui s'é-|coeu-|* re|
[K:C][Q:1/4=98]"^Moderato" z2 =F2-!p! F z | z2 (=F F F A | F2) z2 z2 | z2 z2!p!!>(! (=F2!>)! | %50
w: Quoi! _|nul- le tra- hi-|son?|Ce|
 =f6) |!pp! !tenuto!.=d2 !tenuto!.d2 !tenuto!.d2 |[Q:1/4=112] !tenuto!.=d6- | d2 z2 z2 | z6 | z6 || %56
w: deuil|est sans rai-|son.|_|||
[K:B]!pp![Q:1/4=112]"^1o  Tempo" (d2 ^e2 d2 | c2 Bc d2-) | (d2 g2!>(! =g2 | f2 ^e2 =e2!>)! | %60
w: C'est bien la|pi- re * pei-|ne De ne|sa- voir pour-|
 d2)!p! z2!<(! (G G!<)! |!>(! B2 G2!>)! D2 | =D6-) | =D2 z2 z2 | %64
w: quoi, Sans a-|mour et sans|hai-|ne,|
 z2[Q:1/4=90]"^Molto rallentanto"!<(! (C2 E2 | F2 ^F2!<)! c2) |!p!!>(! c6- | c6-!>)! | (c6 | D6) | %70
w: Mon coeur|a tant de|pei -||||
[Q:1/4=112]"^a Tempo"!pp! D6- | D2 z2 z2 | z6 | z6 | z6 |[Q:1/4=108] z6[Q:1/4=104] | %76
w: ne.|_|||||
[Q:1/4=112]"^a Tempo e morendo" z6[Q:1/4=110] |[Q:1/4=108] z6[Q:1/4=105][Q:1/4=100] | z6 | z6 |] %80
w: ||||
V:2
!pp! (d/B/d/B/)(d/B/d/B/)(d/B/d/B/) | (d/B/d/B/)(d/B/d/B/)(d/B/d/B/) | %2
!p! (d/B/d/B/)(d/B/d/B/)(d/B/d/B/) | (d/B/d/B/)(d/B/d/B/)(d/B/d/B/) | %4
 (d/B/d/B/)(d/B/d/B/)(d/B/d/B/) | (d/B/d/B/)(d/B/d/B/)(d/B/d/B/) |!>(! d2!>)! B4 | %7
!p!!>(! d2!>)! B4 |!pp!!>(! G2!>)! F4 | G2 F4 |[K:bass]!pp! !>!E6 |!<(! !>!E6!<)! |!p! z2 C2 E2 | %13
[K:treble] =F2 ^F2 c2 |!p! c2!<(! c2 e2 | =f2 ^f2!<)! c'2 | c'2!p! c'4 | c'2 d'4 | %18
!pp! x2 ^e'2 d'2 | c'2 bc' d'2- | d'2!8va(! g'2!>(! =g'2 | f'2 =f'2 e'2!>)!!8va)! | %22
!pp!"^sempre pianissimo" d2 ^e2 d2 | c2 Bc d2- |!<(! d2!<)! x4 | g2 f2 d2 |!>(! =d4 x2!>)! | %27
[K:bass] =D4 x2 |!p! =D2 ^E2!>(! ^D2 |[K:treble] =d2 ^e2 ^d2!>)! |!pp! (c/A/c/A/c/A/c/A/c/A/c/A/) | %31
 (c/A/c/A/c/A/c/A/c/A/c/A/) | (G2 A2 G2 |!<(! F2 EF!<)! !>![DG-]2) |!p! (G2 A2 G2 | %35
!<(! F2 EF!<)! [DG-]2) | [^A,EG]2!p! ([aa']2 [gg']2 | [ff']2 [ee'][ff'] [gg'-]2) | %38
!p! (g'4!>(! f'2- | f'2!>)! d'2 b2 |!p! ([=d=d']/)=f/d'/f/d'/f/d'/f/d'/f/d'/f/) | %41
 (=d'/=f/d'/f/d'/f/d'/f/d'/f/d'/f/ |!p!!>(! (=d'2) e'2 d'2!>)! |!>(! (=c'2) _bc' =d'2-!>)! | %44
!pp!!>(! (=d'2) =c'2 =a2!>)! |!>(! =d2 =c2 =A2)!>)! ||[K:C][K:bass]!p! (D_D-) D z x2 | %47
!p! D^C- C2 z2 |[K:treble]!<(! [Dd][_D_d]-!<)! [Dd]2-!>(! [Dd]F- | [Dd][^C^c]-!>)! (([Cc]4 | %50
!pp! ([Afa]6)) | F6) |!pp! (^G2 A2 G2 | ^F2 EF ^G2-) |!p! ^G2 d/B/d/B/d/!>(!B/d/B/ | %55
 (d'/b/d'/b/d'/b/d'/b/d'/b/d'/!>)!b/) ||[K:B] (d'/d/b/d/d'/d/b/d/d'/d/b/d/) | %57
 (d'/d/b/d/d'/d/b/d/d'/d/b/d/) | (d'/d/b/d/d'/d/!>(!b/d/=d'/=d/_b/d/ | %59
 c'/c/=a/c/=c'/=c/_a/c/=b/=B/=g/!>)!B/) |!p!!>(! d2 B4!>)! |!p!!>(! d2 B4!>)! | %62
!p!!>(! ((G/F/=D/B,/)(x/)D/B,/!>)!G,/[I:staff +1] F,/[I:staff -1]D/B,/G,/) | %63
!pp!!>(! ((G/F/=D/B,/)(x/)D/B,/!>)!G,/[I:staff +1] F,/[I:staff -1]D/B,/G,/) |!p! E6- | [=DE]6 | %66
!pp!"^m.g." [E-=GB]6 |"^m.d." [=gb]6 |!>(! ^^F,6-!>)! | [F,CD]6 |!pp! d'2 ^e'2 d'2 | %71
 c'2 b[gc'] d'2 | z2 ^e2 d2 |!<(! c2 Bc d2!<)! | %74
[K:bass]"^per     -     den    -     do     -     si"!<(! C2 B,C D2!<)! | %75
"^a  poco  rit."!>(! C2 B,2 C2!>)! |[K:treble] !>!D6-!p! | D6- |"^m.g."!ppp! [DGd]6- | %79
 [DGd]2 z2 z2 |] %80
V:3
 z6 | z6 |[K:treble] (D2"^un peu en dehors" ^E2 D2 | C2 B,C D2-) | (D2 G2 =G2 | F2 ^E2 =E2) | %6
[K:bass]!>(! !>!B,6- | B,6!>)! | (=D,2 B,,2) F,2 | =D,2 B,,2!pp! F,2 | z6 | (=F,2 ^F,2 G,2) | %12
 z2!<(! (C,2 E,2 | =F,2 ^F,2!<)! G,2) |!p! z2[K:treble] (C2!<(! E2 | %15
 [B,=D=F]2 [D^F=A]2!<)! [EGB]2 | [=A,E=A]2)!p! ([Ac]4 | [^Ac]4 [DA]2) | %18
!pp! (!arpeggio![Bd]2 ^e2 d2 | c2 Bc d2-) | d2 g2 =g2 | [FB]2 [=GB]2 [^GB]2 | %22
[K:bass]!pp! (!arpeggio![G,,D,B,D]2 ^E2 D2 | C2 B,C D2-) | D2[K:treble] z .B!>(! z .A | %25
 z .G z .F z .D!>)! |[K:bass]!>(! G,2 =G,2!>)! F,2 |!>(! G,,2 =G,,2 F,,2!>)! |!p! =D,2 ^E,2 ^D,2 | %29
 (=D2 ^E2 ^D2) |!pp! [F,,,C,,]6- | [F,,,C,,]2 z2 z2 |[K:treble] (E/F/E/F/E/F/E/F/E/F/E/F/) | %33
 C/E/C/E/[K:bass] A,/C/A,/C/ !>![F,,C,]2 |[K:treble]!pp! ((E/F/E/F/E/F/E/F/E/F/E/F/)) | %35
[K:bass] C/E/C/E/A,/C/A,/C/ !>![F,,C,]2- | [F,,C,]2[K:treble]!<(! A2 B2 | ^B2 c2 e2!<)! | %38
 (=A/B/A/B/A/B/A/B/A/B/A/B/) | (=A/B/A/B/A/B/A/B/A/B/A/B/) | (=A2 B2 A2 | =G2 =FG =A2) | %42
 (=C/_B/C/B/C/B/C/B/C/B/C/B/) | (=C/_B/C/B/C/B/C/B/C/B/C/B/) | (=C/=A/C/A/C/A/C/A/C/A/C/A/) | %45
[K:bass]!>(! (=G,/=C/G,/C/^F,/C/F,/C/F,/C/F,/!>)!C/) ||[K:C] !>![_B,,,F,,]2- [B,,,F,,] z z2 | %47
 [F,,_E,]4 z2 | [_B,,F,]6 | G,6 |!pp! z2!p!!>(! (E2 D2- | D2 ^C2!>)! =C2) | %52
!pp! (B,/D/B,/D/B,/D/B,/D/B,/D/B,/D/) |!<(! (^G,/B,/G,/B,/A,/C/A,/C/^A,/^C/A,/!<)!C/) | %54
[K:treble] B,/D/B,/D/ A2 ^G2 | ^F2 ^GF E2 ||[K:B][K:bass]!ppp! [G,,,D,,]6- | [G,,,D,,]2 z2 z2 | %58
 z2[K:treble] ([^EB]2 [=E_B]2 | [D=A]2 [=D_A]2 [C=G]2 |[K:bass] B,6-) | B,6 | =D,2 B,,2 x2 | %63
 =D,2 B,,2 x2 |!p! E,6- | (=F,2 ^F,2 G,2) | !arpeggio![=A,,,E,,E,]6- | [A,,,E,,E,]6 |!pp! z6 | %69
 [D,,^A,,]6 |!pp! z2[K:treble]!>(! (^e2 d2 | [^EGc]2 [=EGB]2!>)! [B,FB]2) | %72
[K:bass]!pp! [G,,,D,,]2 (^E2 D2 |!<(! [^E,G,C]2 [=E,G,B,]2!<)! [B,,F,B,]2) | %74
 ([^E,,G,,C,]2 [=E,,G,,B,,]2 [B,,,F,,B,,]2) | ([^E,,G,,C,]2!pp! [=E,,G,,B,,]4) | %76
!pp! (G,/!>(!D,/G,/D,/) (G,/D,/G,/D,/) (G,/D,/G,/D,/) | %77
 (G,/D,/G,/D,/) (G,/D,/G,/D,/) (G,/D,/G,/-D,/-)!>)! | [G,,,D,,G,,]6- | [G,,,D,,G,,]2 z2 z2 |] %80
V:4
 x6 | x6 | x6 | x6 | x6 | x6 | ((!>!d/D/G/D/)(x/)D/G/D/G/D/G/D/) | %7
 ((!>!d/D/G/D/)(x/)D/G/D/G/D/G/D/) | (G/F/=D/B,/)(x/D/B,/G,/[I:staff +1]x/[I:staff -1]D/B,/G,/) | %9
 (G/F/=D/B,/)(x/D/B,/G,/[I:staff +1]x/[I:staff -1]D/B,/G,/) | %10
[K:bass] (C/E,/C/E,/)(C/E,/C/E,/)(C/E,/C/E,/) | (=D/E,/D/E,/)(D/E,/D/E,/)(D/E,/D/E,/) | %12
 x2 (C/E,/=A,/E,/) (E/A,/!<(!C/A,/) |[K:treble] (=F/G,/=D/G,/) (^F/B,/D/!<)!B,/) (c/D/G/D/) | %14
 (c/C/=A/C/ c/E/A/E/ e/A/c/A/ | =f/G/d/G/ ^f/B/d/B/ c'/-d/g/d/ | %16
 c'/)c/=a/c/ x/-!>(!e/!>(!a/e/a/e/a/e/ | c'/d/g/d/x/d/^^f/d/ f/!>)!d/f/!>)!d/ | %18
 d'/g/b/g/^e'/g/b/g/d'/g/b/g/ | c'/d/g/d/ b/g/c'/g/d'/g/b/g/ | %20
 d'/g/b/g/!8va(! (g'/b/d'/b/=g'/b/d'/b/ | f'/b/=d'/b/=f'/b/d'/b/e'/b/d'/b/)!8va)! | %22
 (^d/G/B/G/ ^e/G/B/G/d/G/B/G/ | c/D/G/D/ B/G/c/G/d/G/B/G/) | (d/G/B/G/b/B/d/B/!>(!a/B/d/B/ | %25
 g/B/d/B/f/B/d/B/d/G/B/G/)!>)! |(x/G/B/G/) z/ (=G/B/G/) z/ (F/B/!mp!F/) | %27
[K:bass](x/G,/!>(!B,/G,/) z/ (=G,/B,/G,/) z/ (F,/B,/!>)!F,/) | %28
 (=D/^E,/B,/E,/ ^E/G,/B,/G,/^D/G,/B,/G,/) |[K:treble] (=d/^E/B/E/^e/G/B/G/^d/G/B/G/) | x6 | x6 | %32
 x6 | x4 =A,/^B,/A,/B,/ | x6 | x4 =A,/^B,/A,/B,/ | x6 | x6 | d2 e2 d2 | c2 Bc d2 | x6 | x6 | =f6- | %43
 =f2 e2 =c2 | _e6 | _E6 ||[K:C][K:bass] !>!F,2- F, z z F, | A,2- A,2 x2 |[K:treble] F4 x2 | F6 | %50
 x6 | x6 | D z z2 z2 | x6 | x6 | d6 ||[K:B] x6 | x6 | x6 | x6 |(!>!x/D/G/D/)(x/D/G/D/G/D/G/D/) | %61
((x/D/G/D/)(x/)D/G/D/G/D/G/D/) | G2 F4 | G2 F4 | C6 | x6 | !arpeggio!C6- | [CE]6 | x6 | x6 | %70
 ((d'/g/b/g/) (^e'/g/b/g/) (d'/g/b/g/) | (c'/^e/g/e/) b/=e/g/e/ (d'/d/f/d/)) | %72
 z/ G/B/G/ (^e/G/B/G/ d/G/B/G/ | c/^E/G/E/ B/=E/G/E/ d/D/F/D/) | %74
[K:bass] (C/^E,/G,/E,/ B,/=E,/G,/E,/ D/D,/F,/D,/) | (C/^E,/G,/E,/ B,/=E,/G,/E,/ C/E,/G,/E,/) | %76
[K:treble] x6 | x6 | x6 | x6 |] %80
V:5
 x6 | x6 |[K:treble] x6 | x6 | x6 | x6 |[K:bass] (G,2 =G,2 F,2 | ^E,2 =E,2 D,2) | E,,4 B,,,2 | %9
 E,,4 B,,,2 | [=A,,,E,,]6- | [=A,,,E,,]6 | [=A,,,E,,]6 | E,6 | [=A,,E,]4[K:treble] x2 | x6 | x6 | %17
 x6 | !arpeggio![G,D]2 x4 | x6 | [^EB]6 | f2 =f2 e2 |[K:bass] x6 | x6 | [C,,G,,]4[K:treble] x2 | %25
 x6 |[K:bass] =D6 | =D,6- | C,,6 | C,6 | x6 | x6 |[K:treble] x6 | x2[K:bass] x4 |[K:treble] x6 | %35
[K:bass] x6 | x2[K:treble] (A/C/E/C/ B/E/G/E/ | ^B/E/=A/E/ c/E/^A/E/ e/A/c/A/) | B,6- | B,6 | %40
 [=G,=D]6- | [G,D]6 | =G,6 | =G,6 | =G,6 |[K:bass] x6 ||[K:C] x6 | x6 | x5 F, | (_B,,4 A,,2 | %50
 [D,,A,,]6) | x6 | x6 | x6 |[K:treble] x6 | x6 ||[K:B][K:bass] x6 | x6 | x2[K:treble] x4 | x6 | %60
[K:bass] (^G,2 =G,2 F,2 | ^E,2 =E,2 D,2) | (E,,4 [B,,,F,]2) | (E,,4 B,,,2) | [A,,,E,,]6- | %65
 [A,,,E,,]6 | x6 | x6 | x6 | x6 | [G,,,D,,]2[K:treble] x4 | x6 |[K:bass] x6 | x6 | x6 | x6 | %76
 [G,,,D,,G,,]6- | [G,,,D,,G,,]6- | [D,G,]6- | [D,G,]2 z2 z2 |] %80
V:6
 x6 | x6 |[K:treble] x6 | x6 | x6 | x6 |[K:bass] x6 | x6 | x6 | x6 | x6 | x6 | x6 | x6 | %14
 x2[K:treble] x4 | x6 | x6 | x6 | x6 | x6 | x6 | x6 |[K:bass] x6 | x6 | x2[K:treble] x4 | x6 | %26
[K:bass] x6 | x6 | x6 | x6 | x6 | x6 |[K:treble] x6 | x2[K:bass] x4 |[K:treble] x6 |[K:bass] x6 | %36
 x2[K:treble] x4 | x6 | x6 | x6 | x6 | x6 | x6 | x6 | x6 |[K:bass] x6 ||[K:C] x6 | x6 | x6 | x6 | %50
 x6 | x6 | x6 | x6 |[K:treble] x6 | x6 ||[K:B][K:bass] x6 | x6 | x2[K:treble] x4 | x6 | %60
[K:bass] x6 | x6 | x6 | x6 | x6 | E,6 | x6 | x6 | x6 | x6 | x2[K:treble] x4 | x6 |[K:bass] x6 | %73
 x6 | x6 | x6 | x6 | x6 | x6 | x6 |] %80

